!!!OTL: HANS PHILIPPCHEN GEIG EINMAL
!!!ARE: Europa, Mitteleuropa, Deutschland, Hessen; Schlesien
!!!SCT: K0556
!!!YEM: Copyright 1995, estate of Helmut Schaffrath.
**kern
*ICvox
*Ivox
*M2/4
*k[b-]
*F:
=1
{8.cc
16cc
8cc
8cc
=2
8a
8f
4f}
=3
{8.c
16f
8f
8a
=4
4a
4g}
=5
{8.b-
16b-
8b-
8b-
=6
8g
8e
4e}
=7
{8.c
16g
8g
8a
=8
4g
4f}
==
!!!AGN: Kinder -, Spiel - Lied
!!!ONB: ESAC (Essen Associative Code) Database: KINDER
!!!AMT: simple duple
!!!AIN: vox
!!!EED: Helmut Schaffrath
!!!EEV: 1.0
*-
